X:2275
T:She Donny Sayre (She dooinney Seyr)
T:All ye who are to mirth inclined 
C:John Quayle, Gordon, Patrick
C:Traditional
O:Isle of Man
Z:Clague collection
B:Kiaull Vannin #275 
M:3/4 
L:1/8 
Q:120 
K:D 
FBB|B2 F2 GE|F3 Fdd|c2 B2 AB|c3d/e/ fe|dc BA Bc|F3 FDE|F2 dB cd|B3|| 

